pink svg/bumper.svg

<svg version="1.2" xmlns="http://www.w3.org/2000/svg" viewBox="0 0 99 23" width="99" height="23">
	<title>pink bumper-svg</title>
	<style>
		.s0 { fill: #bd3875 } 
		.s1 { fill: #fc4b9c } 
	</style>
	<g id="Layer">
		<path id="Layer" class="s0" d="m0 15.5q0-0.3 0.1-0.6 0-0.3 0.2-0.5 0.1-0.3 0.3-0.5 0.2-0.2 0.5-0.3c4.5-2.9 23.4-13.6 51.5-13.6 26.9 0 41.1 5.9 45.1 8q0.3 0.1 0.5 0.4 0.2 0.2 0.4 0.4 0.1 0.3 0.2 0.6 0.1 0.3 0.1 0.6c0 0.2-9.8-2.9-47.5-2.9-37.7 0-51.4 8.4-51.4 8.4z"/>
		<path id="Layer" class="s1" d="m0 22.4v-6.9c0 0 13.7-8.4 51.4-8.4 37.7 0 47.5 2.9 47.5 2.9v11c-7.7-1.3-21.2-2.6-44.1-2.6-28.5 0-45.9 2.3-54.8 4z"/>
	</g>
</svg>

<svg id="Layer_1" data-name="Layer 1" xmlns="http://www.w3.org/2000/svg" width="98.9" height="22.4" viewBox="0 0 98.9 22.4">
  <defs>
    <style>
      .cls-1 {
        fill: #f5f5f5;
      }

      .cls-2 {
        fill: #ededed;
      }
    </style>
  </defs>
  <g>
    <path class="cls-1" d="M0,15.5a2.14,2.14,0,0,1,1.1-1.9C5.6,10.7,24.4,0,52.6,0,79.5,0,93.7,5.9,97.7,8a2.2,2.2,0,0,1,1.2,2S89.1,7.1,51.4,7.1,0,15.5,0,15.5Z"/>
    <path class="cls-2" d="M0,22.4H0V15.5S13.7,7.1,51.4,7.1,98.9,10,98.9,10V21h0c-7.7-1.3-21.2-2.6-44.1-2.6C26.3,18.4,8.9,20.7,0,22.4Z"/>
  </g>
</svg>
